usr/share/icons/biglinux-icons-material/24/actions/tool-tweak.svg

<svg xmlns="http://www.w3.org/2000/svg" viewBox="0 0 24 24">
  <defs id="defs3051">
    <style type="text/css" id="current-color-scheme">
      .ColorScheme-Text {
        color:#dedede;
      }
      </style>
  </defs>
 <path style="fill:currentColor;fill-opacity:1;stroke:none" 
     d="M 14.009766 5 C 12.315426 4.9599 11.069191 5.8956362 10.238281 7.1914062 C 9.4070212 8.4877063 8.9069244 10.152508 8.4902344 11.798828 C 8.0735444 13.445148 7.7448013 15.078649 7.3320312 16.255859 C 7.1256413 16.844459 6.8945494 17.314686 6.6621094 17.603516 C 6.4296694 17.892336 6.2431644 17.99508 5.9902344 18 C 5.1295444 18.00017 4 18 4 18 L 4 19 C 4 19 5.13743 19.00017 6 19 L 6.0039062 19 L 6.0097656 19 C 6.5902156 18.9887 7.0885963 18.668879 7.4414062 18.230469 C 7.7942263 17.792059 8.0493606 17.230567 8.2753906 16.585938 C 8.7274506 15.296667 9.0524575 13.656859 9.4609375 12.042969 C 9.8694175 10.429079 10.363588 8.8477987 11.080078 7.7304688 C 11.796578 6.6131388 12.651111 5.96769 13.988281 6 L 13.992188 6 L 13.996094 6 C 16.708614 6.0218 17.860132 7.1389731 18.451172 8.2519531 C 18.840022 8.9842131 18.77936 9.3012969 18.8125 9.7167969 C 17.11298 8.9620269 15.676849 8.7653681 14.667969 9.2988281 C 13.466089 9.9343381 12.920391 11.278694 12.832031 12.683594 C 12.743631 14.088504 13.088359 15.610808 13.787109 16.830078 C 14.485849 18.049338 15.59648 19.0006 17 19 C 18.54836 19.0148 20.005859 19 20.005859 19 L 19.994141 18 C 19.994141 18 18.543186 18.0148 17.003906 18 L 17.001953 18 L 17 18 C 16.04817 18.0004 15.241667 17.356951 14.654297 16.332031 C 14.066937 15.307111 13.755188 13.936944 13.830078 12.746094 C 13.904978 11.555254 14.343916 10.599821 15.134766 10.181641 C 15.925616 9.7634606 17.231666 9.7892869 19.253906 10.935547 L 19.964844 11.337891 L 20 10.521484 C 20 10.521484 20.064404 9.1587231 19.333984 7.7832031 C 18.604244 6.4090231 17.007709 5.02675 14.011719 5 L 14.009766 5 z "
     class="ColorScheme-Text"
     />
</svg>

<svg xmlns="http://www.w3.org/2000/svg" viewBox="0 0 24 24"><path d="M14.01 5c-1.695-.04-2.94.896-3.772 2.191-.831 1.297-1.331 2.962-1.748 4.608-.416 1.646-.745 3.28-1.158 4.457-.206.588-.437 1.059-.67 1.348-.232.288-.419.391-.672.396H4v1h2.01c.58-.011 1.079-.331 1.431-.77.353-.438.608-1 .834-1.644.452-1.29.777-2.93 1.186-4.543.408-1.614.903-3.195 1.62-4.313.716-1.117 1.57-1.762 2.907-1.73h.008c2.713.022 3.864 1.139 4.455 2.252.389.732.328 1.05.361 1.465-1.699-.755-3.135-.952-4.144-.418-1.202.635-1.748 1.98-1.836 3.385-.088 1.405.256 2.927.955 4.146C14.486 18.05 15.597 19 17 19c1.548.015 3.006 0 3.006 0l-.012-1s-1.45.015-2.99 0H17c-.952 0-1.758-.643-2.346-1.668-.587-1.025-.899-2.395-.824-3.586.075-1.19.514-2.146 1.305-2.564.79-.419 2.097-.393 4.119.754l.71.402.036-.817s.064-1.362-.666-2.738C18.604 6.41 17.008 5.027 14.012 5h-.002z" style="fill:currentColor;fill-opacity:1;stroke:none;color:#dedede"/></svg>
